X: 1
T: Syrj\"al\"an Kaapoon polska  (A)
O: Matti Haudanmaan (ohjelmistoa)
R: polska
Z: 2013 John Chambers <jc:trillian.mit.edu>
M: 3/4
L: 1/16
K: A
e2- |\
"A"efed c2d2 "E/G#"e2fg | "F#m"a2gb a2g2 "E"f2e2 | "D"fgfe d2c2 "Bm"B2A2 | "E"GABG E4 "A"A4 :|
|:\
"E"B3A GABc d2B2 | "A"A2AG ABcd e2c2 | "Bm"B3A GABc "E"d2B2 | "A"A2AG ABcd e2ec |
"D"f2fe d2c2 "Bm"B2A2 |1 "E"GABG E4 "A"A4 :|2 "E"GEGB B4 "A"A4 |]

%%sep 1 1 500

